X:1
T:Wildwood Flower
T:Wildwood Flower
T:for voice and tenor viol
T:arr. David Saphra
T:nalvi.org
%%score 1 ( 2 3 4 )
L:1/8
Q:1/4=66
M:2/4
K:Eb
V:1 treble-8 nm="Violin"
V:2 treble-8 nm="Bass Clarinet"
V:3 treble-8 
V:4 treble-8 
V:1
 GA |[M:2/4] B2 ce | G2 AG | F2 GF | E4- | E2 GA | B2 ce | G2 AG | F2 GF | E4- | E2 Be | g2 fe | %12
w: Oh, I'll|twine with my|tan- gled and|man- gled white|hair|* With the|ro- ses so|red and the|li- lies so|fair|* And the|myr- tle so|
w: I will|dance, I will|sing, and my|love shall be|gay|* I will|charm ev'- ry|heart, in her|ground I will|sway|* When I|woke from my|
w: Oh, she|taught me to|love her and|pro- mised to|love|* And to|che- rish me|o- ver all|o- thers a-|bove|* How my|heart is now|
 e2 BB | e2 dc | B3 B | G2 G>F | GB-BG | F2 GF | E4- | E2 :| GA | B2 ce | G2 AG | F2 GF | F E3 | %25
w: bright with the|e- mer- ald|dew The|pale a- ma-|ni- ta * and|i- slip like|blue||Oh she|taught me to|love * her|called me her|flow- er|
w: drea- ming my|i- dol was-|clay All|por- tion of|lo- ve * had|all flown a-|way|||||||
w: won- d'ring no|mi- sery can|tell She's|left me no|war- ning, * no|words of fare-|well|||||||
 z2 GA | B2 ce | G2 AG | F2 GF | F E3 | z2 Be | gf ed | ed cB | e2 dc | c B3- | B2 z B | G2 G>F | %37
w: That was|bloom- ing to|cheer her through|life's drear- y|hou- r|How I'm|long- ing now to|see her and re-|gret the dark|hou- r|* She's|gone and ne-|
w: ||||||||||||
w: ||||||||||||
 GB-BG | F2 GF | %39
w: glec- ted * her|pale wild- wood|
w: ||
w: ||
"^rit."[Q:1/4=60] F[Q:1/4=53]"^.1" !fermata!E3-[Q:1/4=48]"^.3"[Q:1/4=45]"^.4"[Q:1/4=42]"^.7" | %40
w: flow- er|
w: |
w: |
[Q:1/4=40]"^.2" E4-[Q:1/4=36]"^.5"[Q:1/4=32]"^.9" |[Q:1/4=26]"^.3" E2 |] %42
w: ||
w: ||
w: ||
V:2
 z F |[M:2/4] G2 z C | E4 | D2 ED | (3([GB][Ac][GB] (3:2:2[Ac]2 [GB]-) | [GB]-[GB] z F | G2 (Bc) | %7
 e4 | D2 ED | (3([GB][Ac][GB]) [Ac][G-B] | G2 G2 | e2 z2 | B2 E2 | C2 FE | %14
 (3[DF]/[EG]/[DF]/(3:2:2[EG]/F- (3:2:1F3/2G | B4 | (B (G2) B) | (D2 (E)D) | %18
 (3([GB][Ac][GB]) [Ac][G-B] | G2 :| z F | G2 z C | E4 | D2 ED | AG z A | GF z F | G2 z C | E4 | %28
 D2 ED | AG z A | GA GB | ed cB | cB AG | C2 FE | F2 CD | [CE]F G/F/G/A/ | B4 | (B (G2) B) | %38
 (D2 (E)D) | [ac'][gb] (3[fa][eg][AB] | c!fermata!B B2- | B2 |] %42
V:3
 E2- |[M:2/4] E2 A,2 | B,2 CB, | B,4 | E z x2 | x2 E2 | E2 A2 | (B2 (c)B) | B,4 | E z z2 | z2 E z | %11
 [EG]2 (AG) | G2 G,2 | A,2 B,2 | x4/3 (3:2:1D- D x | x2 (E>D) | E4 | B,4 | E z z2 | z2 :| E2- | %21
 E2 A,2 | B,2 CB, | B,4 | DE GF | E2 E2- | E2 A,2 | B,2 CB, | B,4 | DE GF | EF E z | B2 A2 | %32
 AF E2 | A,2 B,2 | ED A,B, | x [B,D] E2 | E2 (E>D) | E4 | B,4 | x4 | AG [EG-]2 | G2 |] %42
V:4
 x2 |[M:2/4] x4 | x4 | x4 | x4 | x4 | x4 | x4 | x4 | x4 | z2 z B | B4 | x4 | x4 | x4 | x4 | x4 | %17
 x4 | x4 | z2 :| x2 | x4 | x4 | x4 | x4 | x4 | x4 | x4 | x4 | x4 | B,2 z2 | z4 | x2 B,2 | x4 | %34
 B,2 z2 | x4 | x4 | x4 | x4 | x4 | x4 | x2 |] %42

